X:1
T:I’ll Be a Sunbeam
T:I’ll Be a Sunbeam
T:Edwin Othello Excell
T:Nellie Talbot, 1900
T:Public Domain Courtesy of the Cyber Hymnal™
T:Public Domain Courtesy of the Cyber Hymnal™
C:Edwin Othello Excell
Z:Public Domain
Z:Courtesy of the Cyber Hymnal™
%%score ( 1 2 ) ( 3 4 )
L:1/8
Q:1/4=100
M:6/8
K:G
V:1 treble 
V:2 treble 
V:3 bass 
V:4 bass 
V:1
 [B,D][B,E][B,F] [B,G][B,E][B,G] x4 | [CF]3 [Fd]2 [CE] x4 | [CD]2 [Ec] [DB]2 [CA] x3 | %3
w: 1.~Je- sus wants me for a|sun- beam, To|shine for Him each|
w: 2.~Je- sus wants me to be|lov- ing, And|kind to all I|
w: 3.~I will ask Je- sus to|help me To|keep my heart from|
w: 4.~I’ll be a sun- beam for|Je- sus; I|can if I but|
 [DB]3- [DB]3 | [B,D][B,E][B,F] [B,G][B,E][B,G] x4 | [CF]3 [Fd]2 [CE] x4 | D2 [Ec] [DB]2 [CA] x4 | %7
w: day; *|In ev- ery way try to|please Him, At|home, at school, at|
w: see; *|Show- ing how plea- sant and|hap- py His|lit- tle one can|
w: sin, *|Ever re- flect- ing His good-|ness, And al-|ways shine for Him.|
w: try; *|Serv- ing Him mo- ment by|mo- ment, Then|live with Him on|
 [B,G]3- [B,G]2 ||"^Refrain" [B,D] | [B,G]3 [DB]2 [Gd] x4 | [Fd]3 [DF]3 x3 | %11
w: play. *||||
w: be. *|A|sun- beam, a|sun- beam,|
w: ||||
w: high. *||||
 [Fd][Ec][CA] [DF][FA][Fc] x4 | [ce]3 [Bd]2 [B,D] x3 | [B,G]3 [DB]2 [Gd] x4 | [Fd]3 [DF]3 x4 | %15
w: ||||
w: Je- sus wants me for a|sun- beam; A|sun- beam, a|sun- beam,|
w: ||||
w: ||||
 [Fd][DF][FA] [Ec][DB][CA] x2 | [B,G]6 |] %17
w: ||
w: I’ll be a sun- beam for|Him.|
w: ||
w: ||
V:2
 x10 | x10 | x9 | x6 | x10 | x10 | C2 x8 | x5 || x | x10 | x9 | x10 | x9 | x10 | x10 | x8 | x6 |] %17
V:3
 G,,3 [D,G,][D,G,] G,,3 [D,G,][D,G,] | A,,3 ([D,A,][D,A,]) D,3 [F,A,][F,A,] | %2
 D,3 [F,A,][F,A,] D,2 [F,A,][F,A,] | G,,3 x3 | G,,3 [D,G,][D,G,] G,,3 [D,G,][D,G,] | %5
 A,,3 ([D,A,][D,A,]) D,3 [F,A,][F,A,] | D,3 [F,A,][F,A,] D,3 [F,A,][F,A,] | G,,3 [G,,G,]2 || z | %9
 G,,3 ([D,G,][D,G,]) G,,3 [D,G,B,][D,G,B,] | A,,3 ([F,CD][F,CD]) D,2 ([F,A,][F,A,]) | %11
 D,3 [F,A,][F,A,] D,3 [F,A,][F,A,] | G,,3 ([G,B,D][G,B,D]) G,,2 [G,B,D] z | %13
 G,,3 ([D,G,][D,G,]) G,,3 [D,G,B,][D,G,B,] | A,,3 ([D,CD][D,CD]) D,3 ([F,A,C][F,A,C]) | %15
 D,3 [F,A,C][F,A,C] D,3 | G,3- [G,,G,]3 |] %17
V:4
 G,,G,, x8 | A,, D, x8 | D, D, x7 | (G,,D,G, B,G,D,) | G,,G,, x8 | A,, D, x8 | D, D, x8 | %7
 G,,B,,D, x2 || x | G,, G,, x8 | A,, D, x7 | D,D, x8 | G,, G,, x7 | G,, G,, x8 | A,, D, x8 | %15
 D,D,F, F, x4 | G,,D,B,, x3 |] %17

